icons/expression-defined-color-24.svg

<?xml version="1.0" encoding="UTF-8"?><svg id="icons" xmlns="http://www.w3.org/2000/svg" viewBox="0 0 24 24"><defs><style>.cls-1{fill:none;}</style></defs><path d="M16.17346,14.97559h1.09259L12.45801,4.02441h-.91602L6.73395,14.97559h1.09259l1.30634-2.97559h5.73425l1.30634,2.97559Zm-6.60156-3.97559l2.4281-5.53076,2.4281,5.53076h-4.8562Zm-2.5719,11h-1.29688c-2.04199,0-3.70312-1.66113-3.70312-3.70312v-3.29688c0-1.10254-.89746-2-2-2v-1c1.10254,0,2-.89746,2-2v-3.29688c0-2.04199,1.66113-3.70312,3.70312-3.70312h1.29688v1h-1.29688c-1.49023,0-2.70312,1.21289-2.70312,2.70312v3.29688c0,1.04199-.53418,1.96191-1.34375,2.5,.80957,.53809,1.34375,1.45801,1.34375,2.5v3.29688c0,1.49023,1.21289,2.70312,2.70312,2.70312h1.29688v1Zm11.29688,0h-1.29688v-1h1.29688c1.49023,0,2.70312-1.21289,2.70312-2.70312v-3.29688c0-1.04199,.53418-1.96191,1.34375-2.5-.80957-.53809-1.34375-1.45801-1.34375-2.5v-3.29688c0-1.49023-1.21289-2.70312-2.70312-2.70312h-1.29688v-1h1.29688c2.04199,0,3.70312,1.66113,3.70312,3.70312v3.29688c0,1.10254,.89746,2,2,2v1c-1.10254,0-2,.89746-2,2v3.29688c0,2.04199-1.66113,3.70312-3.70312,3.70312Zm-1.29688-3H7v-3h10v3Z"/><rect class="cls-1" width="24" height="24"/></svg>

<svg xmlns="http://www.w3.org/2000/svg" viewBox="0 0 24 24"><path d="M16.173 14.976h1.093L12.458 4.024h-.916L6.734 14.976h1.093L9.133 12h5.734l1.306 2.976zM9.572 11L12 5.47 14.428 11H9.572zM7 22H5.703A3.707 3.707 0 0 1 2 18.297V15c0-1.103-.897-2-2-2v-1c1.103 0 2-.897 2-2V6.703A3.707 3.707 0 0 1 5.703 3H7v1H5.703A2.707 2.707 0 0 0 3 6.703V10a3 3 0 0 1-1.344 2.5A3 3 0 0 1 3 15v3.297A2.707 2.707 0 0 0 5.703 21H7v1zm11.297 0H17v-1h1.297A2.707 2.707 0 0 0 21 18.297V15a3 3 0 0 1 1.344-2.5A3 3 0 0 1 21 10V6.703A2.707 2.707 0 0 0 18.297 4H17V3h1.297A3.707 3.707 0 0 1 22 6.703V10c0 1.103.897 2 2 2v1c-1.103 0-2 .897-2 2v3.297A3.707 3.707 0 0 1 18.297 22zM17 19H7v-3h10v3z"/><path fill="none" d="M0 0h24v24H0z"/></svg>
